X: 20951
T: RINGAN'S ISLE
R: Strathspey.
%R: strathspey
B: W. Hamilton "Universal Tune-Book" Vol. 2 Glasgow 1846 p.95 #1
S: http://s3-eu-west-1.amazonaws.com/itma.dl.printmaterial/book_pdfs/hamiltonvol2web.pdf
Z: 2016 John Chambers <jc:trillian.mit.edu>
M: C
L: 1/16
K: F
% - - - - - - - - - - - - - - - - - - - - - - - - -
C2 |\
F3GA2f2 dcBA c4 | F3GA2f2 dcBA AG3 |\
F3G A2f2 dcBA c2f2 | g3a g3f efgf edcB |
A3Bc2f2 dcBA c4 | F3G A2f2 dcBA cE3 |\
F3G A2f2 dcBA BcdB | Gg3g3a bagf ec3 |]
ff3 a3f agfe f4 | dB3g3f f3ed3c |\
fgag f3e defe d3c | {c}B3A {A}G3F E2C2C2E2 |
FC3A3F A2c2c2f2 | Gd3Bd3 g3a b2ag |\
f2ed c2de f2ag f2ed | c2fc B2gB AF3 F2 |]
% - - - - - - - - - - - - - - - - - - - - - - - - -

%%sep 1 1 500
%%sep 1 1 500

